flaticon/gastronomy/coffee-1.svg

<svg xmlns="http://www.w3.org/2000/svg" width="32" height="32" viewBox="0 0 24 24">
    <path d="M 19.714844 3 L 18.675781 3 L 18.960938 1.714844 L 14.527344 1.714844 C 14.328125 0.738281 13.464844 0 12.429688 0 L 9 0 C 7.964844 0 7.101562 0.738281 6.902344 1.714844 L 2.628906 1.714844 C 1.890625 1.714844 1.285156 2.316406 1.285156 3.058594 C 1.285156 3.667969 1.703125 4.203125 2.304688 4.359375 C 5.058594 5.085938 5.289062 11.339844 5.144531 13.6875 L 5.117188 14.144531 L 6.855469 14.144531 L 6.855469 15 L 5.261719 15 L 3.191406 21.160156 C 3.082031 21.570312 3.09375 21.988281 3.210938 22.378906 C 3.210938 22.382812 3.210938 22.386719 3.214844 22.390625 C 3.25 22.507812 3.296875 22.625 3.351562 22.738281 C 3.363281 22.765625 3.378906 22.789062 3.394531 22.816406 C 3.441406 22.90625 3.496094 22.992188 3.558594 23.078125 C 3.578125 23.105469 3.597656 23.128906 3.621094 23.15625 C 3.683594 23.234375 3.75 23.304688 3.820312 23.371094 C 3.847656 23.398438 3.871094 23.425781 3.902344 23.449219 C 3.988281 23.523438 4.078125 23.59375 4.171875 23.652344 C 4.1875 23.664062 4.207031 23.671875 4.222656 23.679688 C 4.316406 23.734375 4.414062 23.785156 4.511719 23.824219 C 4.535156 23.835938 4.554688 23.84375 4.574219 23.851562 C 4.6875 23.894531 4.804688 23.929688 4.921875 23.953125 C 4.945312 23.957031 4.96875 23.960938 4.996094 23.964844 C 5.121094 23.984375 5.246094 24 5.378906 24 L 16.050781 24 C 16.179688 24 16.308594 23.984375 16.433594 23.964844 C 16.457031 23.960938 16.480469 23.957031 16.507812 23.953125 C 16.625 23.925781 16.742188 23.894531 16.855469 23.851562 C 16.875 23.84375 16.894531 23.835938 16.917969 23.824219 C 17.015625 23.785156 17.113281 23.738281 17.207031 23.679688 C 17.222656 23.671875 17.238281 23.664062 17.257812 23.652344 C 17.351562 23.59375 17.441406 23.523438 17.527344 23.449219 C 17.554688 23.425781 17.582031 23.398438 17.609375 23.371094 C 17.679688 23.308594 17.742188 23.238281 17.804688 23.164062 C 17.828125 23.132812 17.851562 23.101562 17.875 23.074219 C 17.933594 22.992188 17.984375 22.90625 18.03125 22.820312 C 18.046875 22.792969 18.0625 22.765625 18.078125 22.734375 C 18.132812 22.625 18.175781 22.515625 18.210938 22.398438 C 18.214844 22.386719 18.21875 22.375 18.222656 22.359375 C 18.253906 22.242188 18.28125 22.117188 18.292969 21.996094 C 18.292969 21.984375 18.296875 21.976562 18.296875 21.96875 C 18.300781 21.964844 18.296875 21.964844 18.296875 21.960938 C 18.324219 21.691406 18.300781 21.414062 18.230469 21.136719 L 16.164062 15 L 14.570312 15 L 14.570312 14.144531 L 16.199219 14.144531 L 17.914062 6.429688 L 18.96875 6.429688 C 19.144531 6.429688 19.285156 6.570312 19.285156 6.746094 L 19.285156 10.714844 C 19.285156 11.660156 20.054688 12.429688 21 12.429688 C 21.945312 12.429688 22.714844 11.660156 22.714844 10.714844 L 22.714844 6 C 22.714844 4.347656 21.367188 3 19.714844 3 Z M 9 0.855469 L 12.429688 0.855469 C 12.988281 0.855469 13.464844 1.214844 13.640625 1.714844 L 7.789062 1.714844 C 7.964844 1.214844 8.441406 0.855469 9 0.855469 Z M 5.378906 23.144531 C 5.28125 23.144531 5.1875 23.128906 5.09375 23.109375 C 5.070312 23.105469 5.046875 23.101562 5.023438 23.09375 C 4.933594 23.070312 4.847656 23.042969 4.765625 23 C 4.753906 22.996094 4.75 22.992188 4.742188 22.988281 C 4.664062 22.949219 4.589844 22.898438 4.519531 22.847656 C 4.503906 22.835938 4.488281 22.824219 4.476562 22.8125 C 4.402344 22.75 4.335938 22.683594 4.277344 22.605469 C 4.265625 22.59375 4.257812 22.582031 4.25 22.570312 C 4.199219 22.503906 4.160156 22.429688 4.121094 22.355469 C 4.113281 22.335938 4.101562 22.316406 4.09375 22.296875 C 4.089844 22.292969 4.089844 22.289062 4.085938 22.285156 L 17.339844 22.285156 C 17.339844 22.289062 17.339844 22.296875 17.335938 22.300781 C 17.328125 22.320312 17.320312 22.335938 17.3125 22.351562 C 17.273438 22.429688 17.230469 22.503906 17.175781 22.574219 C 17.167969 22.582031 17.164062 22.59375 17.15625 22.605469 C 17.09375 22.683594 17.027344 22.75 16.953125 22.8125 C 16.941406 22.824219 16.925781 22.835938 16.910156 22.84375 C 16.839844 22.898438 16.765625 22.949219 16.6875 22.988281 C 16.679688 22.992188 16.671875 22.996094 16.667969 23 C 16.582031 23.042969 16.496094 23.070312 16.40625 23.09375 C 16.382812 23.101562 16.359375 23.105469 16.335938 23.109375 C 16.242188 23.128906 16.148438 23.144531 16.050781 23.144531 Z M 15.550781 15.855469 L 17.410156 21.378906 C 17.414062 21.394531 17.410156 21.414062 17.414062 21.429688 L 4.007812 21.429688 C 4.011719 21.421875 4.007812 21.414062 4.011719 21.40625 L 5.878906 15.855469 Z M 13.714844 15 L 7.714844 15 L 7.714844 14.144531 L 13.714844 14.144531 Z M 15.511719 13.285156 L 6.019531 13.285156 C 6.078125 11.40625 6.046875 4.460938 2.523438 3.53125 C 2.296875 3.472656 2.144531 3.28125 2.144531 3.058594 C 2.144531 2.789062 2.363281 2.570312 2.628906 2.570312 L 17.894531 2.570312 L 17.800781 3 L 16.714844 3 C 15.769531 3 15 3.769531 15 4.714844 C 15 5.660156 15.769531 6.429688 16.714844 6.429688 L 17.035156 6.429688 Z M 21.855469 10.714844 C 21.855469 11.1875 21.472656 11.570312 21 11.570312 C 20.527344 11.570312 20.144531 11.1875 20.144531 10.714844 L 20.144531 6.746094 C 20.144531 6.097656 19.617188 5.570312 18.96875 5.570312 L 16.714844 5.570312 C 16.242188 5.570312 15.855469 5.1875 15.855469 4.714844 C 15.855469 4.242188 16.242188 3.855469 16.714844 3.855469 L 19.714844 3.855469 C 20.894531 3.855469 21.855469 4.820312 21.855469 6 Z M 21.855469 10.714844"/>
    <path d="M6.398438 17.007812L5.242188 20.433594C5.167969 20.660156 5.289062 20.902344 5.511719 20.976562 5.558594 20.992188 5.605469 21 5.648438 21 5.828125 21 5.996094 20.886719 6.054688 20.707031L7.210938 17.28125C7.285156 17.054688 7.164062 16.8125 6.941406 16.734375 6.714844 16.660156 6.472656 16.78125 6.398438 17.007812zM15.371094 20.707031C15.433594 20.882812 15.597656 20.996094 15.777344 20.996094 15.824219 20.996094 15.871094 20.992188 15.914062 20.976562 16.140625 20.898438 16.261719 20.65625 16.183594 20.433594L15.03125 17.003906C14.957031 16.78125 14.714844 16.660156 14.488281 16.734375 14.265625 16.8125 14.144531 17.054688 14.21875 17.28125zM15.527344 7.296875C15.296875 7.246094 15.066406 7.390625 15.015625 7.621094L14.0625 11.90625C14.011719 12.136719 14.15625 12.367188 14.386719 12.417969 14.421875 12.425781 14.453125 12.429688 14.480469 12.429688 14.679688 12.429688 14.855469 12.292969 14.898438 12.09375L15.851562 7.808594C15.902344 7.578125 15.757812 7.347656 15.527344 7.296875zM6.355469 3.433594C6.125 3.472656 5.964844 3.695312 6.007812 3.929688L7.386719 12.070312C7.421875 12.28125 7.605469 12.429688 7.808594 12.429688 7.832031 12.429688 7.859375 12.425781 7.882812 12.421875 8.113281 12.382812 8.273438 12.160156 8.234375 11.929688L6.851562 3.785156C6.8125 3.550781 6.589844 3.398438 6.355469 3.433594zM9.429688 21C9.664062 21 9.855469 20.808594 9.855469 20.574219L9.855469 17.144531C9.855469 16.90625 9.664062 16.714844 9.429688 16.714844 9.191406 16.714844 9 16.90625 9 17.144531L9 20.574219C9 20.808594 9.191406 21 9.429688 21zM12.429688 21C12.664062 21 12.855469 20.808594 12.855469 20.574219L12.855469 17.144531C12.855469 16.90625 12.664062 16.714844 12.429688 16.714844 12.191406 16.714844 12 16.90625 12 17.144531L12 20.574219C12 20.808594 12.191406 21 12.429688 21zM9.855469 3.429688C9.621094 3.429688 9.429688 3.621094 9.429688 3.855469L9.429688 12C9.429688 12.238281 9.621094 12.429688 9.855469 12.429688 10.09375 12.429688 10.285156 12.238281 10.285156 12L10.285156 3.855469C10.285156 3.621094 10.09375 3.429688 9.855469 3.429688zM12.429688 3.429688C12.191406 3.429688 12 3.621094 12 3.855469L12 12C12 12.238281 12.191406 12.429688 12.429688 12.429688 12.664062 12.429688 12.855469 12.238281 12.855469 12L12.855469 3.855469C12.855469 3.621094 12.664062 3.429688 12.429688 3.429688zM12.429688 3.429688"/>
</svg>

<svg xmlns="http://www.w3.org/2000/svg" width="32" height="32" viewBox="0 0 24 24">
    <path d="M19.715 3h-1.04l.286-1.285h-4.434A2.145 2.145 0 0 0 12.43 0H9a2.145 2.145 0 0 0-2.098 1.715H2.63c-.738 0-1.344.601-1.344 1.344 0 .609.418 1.144 1.02 1.3 2.754.727 2.984 6.98 2.84 9.329l-.028.457h1.738V15H5.262l-2.07 6.16a2.225 2.225 0 0 0 .023 1.23c.035.118.082.235.137.348.011.028.027.051.043.078a2.08 2.08 0 0 0 .425.555c.028.027.051.055.082.078.086.074.176.145.27.203.016.012.035.02.05.028.094.054.192.105.29.144.023.012.043.02.062.028.114.043.23.078.348.101l.074.012c.125.02.25.035.383.035H16.05c.129 0 .258-.016.383-.035l.074-.012a2.72 2.72 0 0 0 .347-.101c.02-.008.04-.016.063-.028.098-.039.195-.086.289-.144.016-.008.031-.016.05-.028a2.213 2.213 0 0 0 .352-.28 1.97 1.97 0 0 0 .196-.208l.07-.09c.059-.082.11-.168.156-.254.016-.027.032-.054.047-.086.055-.109.098-.218.133-.336l.012-.039c.03-.117.058-.242.07-.363 0-.012.004-.02.004-.027.004-.004 0-.004 0-.008.027-.27.004-.547-.067-.824L16.164 15H14.57v-.855h1.63l1.714-7.715h1.055c.176 0 .316.14.316.316v3.969c0 .945.77 1.715 1.715 1.715.945 0 1.715-.77 1.715-1.715V6c0-1.652-1.348-3-3-3zM9 .855h3.43c.558 0 1.035.36 1.21.86H7.79c.175-.5.651-.86 1.21-.86zm-3.621 22.29a1.39 1.39 0 0 1-.285-.036 1.197 1.197 0 0 1-.328-.11c-.012-.003-.016-.007-.024-.01a1.644 1.644 0 0 1-.265-.177 1.25 1.25 0 0 1-.227-.242 1.49 1.49 0 0 1-.129-.215c-.008-.02-.02-.039-.027-.058-.004-.004-.004-.008-.008-.012H17.34c0 .004 0 .012-.004.016-.008.02-.016.035-.023.05a1.31 1.31 0 0 1-.137.223c-.008.008-.012.02-.02.031a1.456 1.456 0 0 1-.203.207.173.173 0 0 1-.043.032c-.07.054-.144.105-.223.144-.007.004-.015.008-.019.012a1.311 1.311 0 0 1-.332.11 1.39 1.39 0 0 1-.285.035zm10.172-7.29l1.86 5.524c.003.016 0 .035.003.05H4.008c.004-.007 0-.015.004-.023l1.867-5.55zM13.715 15h-6v-.855h6zm1.797-1.715H6.02c.058-1.879.027-8.824-3.497-9.754a.49.49 0 0 1-.378-.472c0-.27.218-.489.484-.489h15.266L17.8 3h-1.086C15.77 3 15 3.77 15 4.715c0 .945.77 1.715 1.715 1.715h.32zm6.343-2.57a.855.855 0 1 1-1.71 0V6.746c0-.648-.528-1.176-1.176-1.176h-2.254a.859.859 0 0 1-.86-.855c0-.473.387-.86.86-.86h3c1.18 0 2.14.965 2.14 2.145zm0 0"/>
    <path d="M6.398 17.008l-1.156 3.426a.43.43 0 0 0 .813.273l1.156-3.426a.436.436 0 0 0-.27-.547.429.429 0 0 0-.543.274zm0 0M15.371 20.707c.063.176.227.29.406.29a.426.426 0 0 0 .406-.563l-1.152-3.43a.43.43 0 0 0-.543-.27.436.436 0 0 0-.27.547zm0 0M15.527 7.297a.43.43 0 0 0-.511.324l-.954 4.285a.43.43 0 0 0 .836.188l.954-4.285a.43.43 0 0 0-.325-.512zm0 0M6.355 3.434a.427.427 0 0 0-.347.496l1.379 8.14a.43.43 0 0 0 .496.352.43.43 0 0 0 .351-.492L6.852 3.785a.433.433 0 0 0-.497-.351zm0 0M9.43 21a.427.427 0 0 0 .425-.426v-3.43a.428.428 0 1 0-.855 0v3.43c0 .235.191.426.43.426zm0 0M12.43 21a.427.427 0 0 0 .425-.426v-3.43a.428.428 0 1 0-.855 0v3.43c0 .235.191.426.43.426zm0 0M9.855 3.43a.427.427 0 0 0-.425.425V12a.428.428 0 1 0 .855 0V3.855a.428.428 0 0 0-.43-.425zm0 0M12.43 3.43a.428.428 0 0 0-.43.425V12a.428.428 0 1 0 .855 0V3.855a.427.427 0 0 0-.425-.425zm0 0"/>
</svg>
